**kern
*staff1
!!pagebreak:original
*I"P1
*clefG2
*k[f#]
*M6/8
8b\
=1
4ee\
8ff#\
4gg\
8aa\
=2
4bb\
8bb\
4.bb\
=3
4.ccc\
4.ccc\
=4
[4.bb\
4bb\]
8bb\
=5
4.aa\
4aa\
8aa\
=6
4gg\
8aa\
4gg\
8gg\
=7
4.ff#\
4ff#\
8ff#\
=8
4ee\
=
*-
